X:1
T:The All-in-All
T:The All-in-All
T:Charles Hutchinson Gabriel
T:James Gilchrist Lawson, 1911
T:Public Domain Courtesy of the Cyber Hymnal™
T:Public Domain Courtesy of the Cyber Hymnal™
C:Charles Hutchinson Gabriel
Z:Public Domain
Z:Courtesy of the Cyber Hymnal™
%%score ( 1 2 ) ( 3 4 )
L:1/8
M:3/4
K:Bb
V:1 treble 
V:2 treble 
V:3 bass 
V:4 bass 
V:1
 [DF][DF] | [DB]3 [DB] [DB]2 | [DB]2 [EA]2 [FB]2 | [Ec]2 [EB]2 [EG]2 | [DF]4 ([B,D][CE]) | %5
w: 1.~He is|com- ing a-|gain with great|glo- ry and|power, To *|
w: 2.~When His|right- eous- ness|co- vers this|earth as a|sea, No *|
w: 3.~All of|sin and of|sick- ness shall|van- ish a-|way, The *|
w: 4.~Nei- ther|weep- ing nor|death then will|mar the fair|scene; No *|
w: 5.~Then “fare-|well to all|sin” let us|joy- ful- ly|say, Fare- *|
 [DF]2 [DG]2 [DA]2 | [DB]2 [Dc]2 [Dd]2 | [=Ed]2 [EG]2 [Ec]2 | [Fc]4 [Fc][Fc] | [Fc]2 [F=B]2 [Fc]2 | %10
w: reign on this|earth as the|King o- ver|all; And the|na- tions shall|
w: sor- row or|care then shall|bur- den the|soul; At His|pre- sence the|
w: heav’ns shall be|seen com- ing|down as the|dew, At the|pre- sence of|
w: more shall the|ter- rors of|Sa- tan ap-|pall; Our re-|joic- ing in|
w: well to its|plea- sures, fare-|well to its|mirth; All its|fol- lies and|
 [Fe]2 [Fd]2 [Fc]2 | [FB]2 [FB]2 [Fc]2 | [Fd]4 [Fd][Fd] | [Fc]3 [Fc] [Fc]2 | [=Ec]2 [EB]2 [EA]2 | %15
w: bend ’neath the|sway of His|rod, And the|de- sert re-|joice at the|
w: hills shall re-|joice and be|glad, And not|one in the|bounds of His|
w: Him, the Al-|might- y and|King, All the|co- horts of|earth shall break|
w: Je- sus will|then be com-|plete, For His|en- e- mies|all shall be|
w: joys then as|no- thing shall|be, When the|Lord in His|glo- ry and|
 [=EB]2 [EA]2 [EG]2 | F4 ||"^Refrain" FF | [Fd]3 [Fd] [Fd]2 | [Fd]2 [Fc]2 [FB]2 | %20
w: pre- sence of|God.||||
w: realm shall be|sad.||||
w: forth and shall|sing.|And the|pow- ers of|dark- ness shall|
w: un- der His|feet.||||
w: beau- ty we|see.||||
 [GB]2 [FA]2 [EG]2 | [DF]4 [DF][DF] | [D^F]3 [DF] [DF]2 | [DG]2 [DG]2 [DA]2 | [DB]4 [Gc]2 | %25
w: |||||
w: |||||
w: crum- ble and|fall; In the|glor- i- ous|light of the|ALL- IN-|
w: |||||
w: |||||
 !fermata![^Fd]4 [Fd][Fd] | [Fe]3 [Fe] [Fe]2 | [Fe]2 [FA]2 [FA]2 | [FB]3 [FB] [Fc]2 | %29
w: ||||
w: ||||
w: ALL; In the|glor- i- ous|light, in the|glor- i- ous|
w: ||||
w: ||||
 [Fd]4 [Fd][Fe] | [Ff]3 [Fd] [FB]2 | [Gc]2 [Gd]2 [Ge]2 | [Fd]4 !fermata![Ec]2 | [DB]4 |] %34
w: |||||
w: |||||
w: light, In the|glor- i- ous|light of the|ALL- IN-|ALL.|
w: |||||
w: |||||
V:2
 x2 | x6 | x6 | x6 | x6 | x6 | x6 | x6 | x6 | x6 | x6 | x6 | x6 | x6 | x6 | x6 | F4 || FF | x6 | %19
 x6 | x6 | x6 | x6 | x6 | x6 | x6 | x6 | x6 | x6 | x6 | x6 | x6 | x6 | x4 |] %34
V:3
 [B,,B,][B,,B,] | [B,,F,]3 [B,,F,] [B,,F,]2 | [B,,F,]2 [C,F,]2 [D,B,]2 | [E,G,]2 [E,G,]2 [E,B,]2 | %4
 [B,,B,]4 [B,,F,]2 | [B,,B,]2 B,2 [A,C]2 | [G,B,]2 [G,B,]2 [G,B,]2 | [C,B,]2 [C,B,]2 [C,B,]2 | %8
 [F,A,]4 [F,A,][F,A,] | [F,A,]2 [F,^G,]2 [F,A,]2 | [F,C]2 [F,B,]2 [E,A,]2 | %11
 [D,B,]2 [D,B,]2 [F,A,]2 | B,4 [B,,B,][B,,B,] | [C,A,]3 [C,A,] [C,A,]2 | [C,G,]2 [C,G,]2 [C,C]2 | %15
 [C,D]2 [C,C]2 [C,B,]2 | [F,A,]4 || [F,A,][F,A,] | [B,,B,]3 [B,,B,] [B,,B,]2 | %19
 [B,,B,]2 [C,A,]2 [D,B,]2 | [E,E]2 [E,E]2 [E,B,]2 | [B,,B,]4 B,B, | [A,C]3 [A,C] [A,C]2 | %23
 [G,B,]2 [G,B,]2 [^F,C]2 | [G,B,]4 [E,G,]2 | !fermata![D,A,]4 [D,A,][D,A,] | %26
 [C,A,]3 [C,A,] [C,A,]2 | [F,A,]2 [F,C]2 [E,C]2 | [D,B,]3 [D,B,] [F,A,]2 | B,4 B,[B,C] | %30
 [B,D]3 B, [D,B,]2 | [E,B,]2 [E,B,]2 [E,B,]2 | [F,B,]4 !fermata![F,A,]2 | [B,,B,]4 |] %34
V:4
 x2 | x6 | x6 | x6 | x6 | x2 B,2 x2 | x6 | x6 | x6 | x6 | x6 | x6 | B,4 x2 | x6 | x6 | x6 | x4 || %17
 x2 | x6 | x6 | x6 | x4 B,B, | x6 | x6 | x6 | x6 | x6 | x6 | x6 | B,4 B, x | x3 B, x2 | x6 | x6 | %33
 x4 |] %34

